img/svg/tiktok.svg

<svg width="24" height="24" viewBox="0 0 24 24"  xmlns="http://www.w3.org/2000/svg">
<path d="M17.1765 8.66347C18.7199 9.77064 20.6105 10.4221 22.6526 10.4221V6.47861C22.2661 6.47869 21.8807 6.43825 21.5026 6.35786V9.46193C19.4607 9.46193 17.5703 8.81049 16.0265 7.7034V15.7509C16.0265 19.7766 12.7746 23.0399 8.76339 23.0399C7.26672 23.0399 5.87562 22.5858 4.72003 21.807C6.03894 23.1604 7.87827 24 9.91316 24C13.9246 24 17.1767 20.7367 17.1767 16.7108V8.66347H17.1765ZM18.5952 4.68499C17.8064 3.82023 17.2886 2.70267 17.1765 1.46717V0.959961H16.0867C16.361 2.53028 17.2967 3.87187 18.5952 4.68499ZM7.25712 18.7178C6.81644 18.1379 6.5783 17.4286 6.57937 16.6992C6.57937 14.858 8.06678 13.3651 9.90183 13.3651C10.2438 13.365 10.5838 13.4176 10.9097 13.5214V9.48977C10.5288 9.43739 10.1444 9.41515 9.76017 9.4233V12.5613C9.43401 12.4575 9.0939 12.4048 8.75183 12.4051C6.91677 12.4051 5.42945 13.8979 5.42945 15.7393C5.42945 17.0414 6.1729 18.1687 7.25712 18.7178Z" />
<path d="M16.0265 7.70332C17.5702 8.81041 19.4607 9.46185 21.5025 9.46185V6.35778C20.3628 6.11414 19.3538 5.5164 18.5951 4.68499C17.2966 3.87179 16.361 2.5302 16.0867 0.959961H13.2241V16.7106C13.2176 18.5468 11.7327 20.0336 9.90162 20.0336C8.82257 20.0336 7.86394 19.5174 7.25682 18.7178C6.17269 18.1687 5.42923 17.0413 5.42923 15.7394C5.42923 13.8981 6.91655 12.4052 8.75161 12.4052C9.1032 12.4052 9.44208 12.4602 9.75995 12.5614V9.42338C5.81921 9.50509 2.6499 12.7365 2.6499 16.7107C2.6499 18.6946 3.43913 20.4931 4.72006 21.8071C5.87565 22.5858 7.26675 23.04 8.76342 23.04C12.7747 23.04 16.0265 19.7765 16.0265 15.7509V7.70332H16.0265Z" />
</svg>

<svg width="24" height="24" viewBox="0 0 24 24" xmlns="http://www.w3.org/2000/svg"><path d="M17.177 8.663a9.362 9.362 0 005.476 1.76V6.478c-.387 0-.772-.04-1.15-.121v3.104a9.364 9.364 0 01-5.477-1.759v8.048c0 4.026-3.251 7.289-7.263 7.289a7.21 7.21 0 01-4.043-1.233A7.229 7.229 0 009.913 24c4.012 0 7.264-3.263 7.264-7.29V8.664zm1.418-3.978a5.506 5.506 0 01-1.418-3.218V.96h-1.09a5.521 5.521 0 002.508 3.725zM7.257 18.718a3.328 3.328 0 01-.678-2.019 3.328 3.328 0 014.33-3.178V9.49a7.302 7.302 0 00-1.149-.067v3.138a3.328 3.328 0 00-4.33 3.178c0 1.302.743 2.43 1.827 2.979z"/><path d="M16.026 7.703a9.364 9.364 0 005.477 1.759V6.358a5.493 5.493 0 01-2.908-1.673A5.522 5.522 0 0116.087.96h-2.863v15.75a3.329 3.329 0 01-3.322 3.324 3.314 3.314 0 01-2.645-1.316 3.335 3.335 0 01-1.828-2.979 3.328 3.328 0 014.33-3.178V9.423c-3.94.082-7.11 3.313-7.11 7.288 0 1.984.79 3.782 2.071 5.096a7.21 7.21 0 004.043 1.233c4.012 0 7.263-3.264 7.263-7.29V7.704z"/></svg>
